synths/sXAU.svg

<svg width="42" height="42" viewBox="0 0 42 42" fill="none" xmlns="http://www.w3.org/2000/svg">
<g clip-path="url(#clip0_7277_57997)">
<mask id="mask0_7277_57997" style="mask-type:alpha" maskUnits="userSpaceOnUse" x="0" y="0" width="42" height="42">
<circle cx="21" cy="21" r="21" fill="url(#paint0_linear_7277_57997)"/>
</mask>
<g mask="url(#mask0_7277_57997)">
<circle cx="21" cy="21" r="21" fill="#34EDB3"/>
<circle cx="21" cy="21" r="18.2" fill="white"/>
</g>
<circle cx="21" cy="21" r="16.1" fill="#06061B"/>
<path d="M21 37.1C29.8918 37.1 37.1 29.8918 37.1 21C37.1 12.1082 29.8918 4.90002 21 4.90002C12.1082 4.90002 4.90002 12.1082 4.90002 21C4.90002 29.8918 12.1082 37.1 21 37.1Z" fill="#06061B"/>
<g style="mix-blend-mode:multiply" opacity="0.4">
<g style="mix-blend-mode:multiply" opacity="0.4">
<path d="M9.40564 18.9083L8.33472 22.5479L14.8007 26.4011L14.501 21.734L9.40564 18.9083Z" fill="#FB8E2F"/>
</g>
<g style="mix-blend-mode:multiply" opacity="0.4">
<path d="M20.1098 12.7854L25.0766 15.6537L14.501 21.734L9.40564 18.9083L20.1098 12.7854Z" fill="#FB8E2F"/>
</g>
<g style="mix-blend-mode:multiply" opacity="0.4">
<path d="M26.3612 19.5503L25.0766 15.6537L14.501 21.734L14.8007 26.4011L26.3612 19.5503Z" fill="#FB8E2F"/>
</g>
<g style="mix-blend-mode:multiply" opacity="0.4">
<path d="M12.8865 16.9171V20.8387L13.7753 21.3316H14.0808V16.234L12.8865 16.9171Z" fill="#FB8E2F"/>
</g>
<g style="mix-blend-mode:multiply" opacity="0.4">
<path d="M22.2626 17.2718L22.9754 16.862V14.4403L22.2626 14.0289V17.2718Z" fill="#FB8E2F"/>
</g>
<g style="mix-blend-mode:multiply" opacity="0.4">
<path d="M14.8881 21.5115L16.3145 20.6918V14.9567L14.8881 15.772V21.5115Z" fill="#FB8E2F"/>
</g>
<g style="mix-blend-mode:multiply" opacity="0.4">
<path d="M14.8007 26.4011L14.501 21.734L9.40564 18.9083" stroke="#FB8E2F" stroke-width="0.25" stroke-miterlimit="10" stroke-linecap="round"/>
</g>
<g style="mix-blend-mode:multiply" opacity="0.4">
<path d="M14.479 21.7737C13.364 21.1288 10.4648 19.5253 9.40564 18.9091C10.4766 19.4732 13.3985 21.0987 14.5223 21.6958C14.5327 21.7016 14.5404 21.7112 14.5437 21.7226C14.547 21.7341 14.5457 21.7464 14.5399 21.7568C14.5342 21.7672 14.5245 21.7749 14.5131 21.7782C14.5017 21.7815 14.4894 21.7802 14.479 21.7744V21.7737Z" fill="#FB8E2F"/>
</g>
<g style="mix-blend-mode:multiply" opacity="0.4">
<path d="M25.0773 15.6544C25.0729 15.6279 14.4048 21.9066 14.5509 21.731L14.8007 26.4011L14.4503 21.7377V21.7061C14.4701 21.6906 25.056 15.6705 25.0795 15.6544H25.0773Z" fill="#FB8E2F"/>
</g>
</g>
<path d="M9.40564 18.4677L8.33472 22.1072L14.8007 25.9605L14.501 21.2933L9.40564 18.4677Z" fill="#FA9B3D"/>
<path d="M20.1098 12.3446L25.0766 15.2136L14.501 21.2932L9.40564 18.4675L20.1098 12.3446Z" fill="#FFDB59"/>
<path d="M26.3612 19.1096L25.0766 15.2137L14.501 21.2933L14.8007 25.9605L26.3612 19.1096Z" fill="#FEBD59"/>
<path d="M12.8865 16.4763V20.3979L13.7753 20.8908H14.0808V15.7932L12.8865 16.4763Z" fill="#FEEC96"/>
<path d="M22.2626 16.8312L22.9754 16.4213V13.9996L22.2626 13.5883V16.8312Z" fill="#FEEC96"/>
<path d="M14.8881 21.0707L16.3145 20.251V14.5159L14.8881 15.3312V21.0707Z" fill="#FEEC96"/>
<path d="M14.8007 25.9605L14.501 21.2933L9.40564 18.4677" stroke="white" stroke-width="0.25" stroke-miterlimit="10" stroke-linecap="round"/>
<path d="M14.479 21.333C13.364 20.6881 10.4648 19.0846 9.40564 18.4684C10.4766 19.0325 13.3985 20.658 14.5223 21.2551C14.5327 21.2609 14.5404 21.2705 14.5437 21.282C14.547 21.2934 14.5457 21.3057 14.5399 21.3161C14.5342 21.3265 14.5245 21.3342 14.5131 21.3375C14.5017 21.3409 14.4894 21.3395 14.479 21.3337V21.333Z" fill="white"/>
<path d="M25.0773 15.2137C25.0729 15.1873 14.4048 21.4659 14.5509 21.2904L14.8007 25.9604L14.4503 21.297V21.2654C14.4701 21.25 25.056 15.2299 25.0795 15.2137H25.0773Z" fill="white"/>
<g style="mix-blend-mode:multiply" opacity="0.4">
<g style="mix-blend-mode:multiply" opacity="0.4">
<path d="M16.6715 23.488L15.6013 27.1276L22.0673 30.9808L21.7669 26.3137L16.6715 23.488Z" fill="#FB8E2F"/>
</g>
<g style="mix-blend-mode:multiply" opacity="0.4">
<path d="M27.3764 17.3651L32.3432 20.2334L21.7669 26.3137L16.6715 23.488L27.3764 17.3651Z" fill="#FB8E2F"/>
</g>
<g style="mix-blend-mode:multiply" opacity="0.4">
<path d="M33.6278 24.13L32.3432 20.2334L21.7668 26.3137L22.0673 30.9809L33.6278 24.13Z" fill="#FB8E2F"/>
</g>
<g style="mix-blend-mode:multiply" opacity="0.4">
<path d="M20.1531 21.4968V25.4184L21.0419 25.9113H21.3467V20.8137L20.1531 21.4968Z" fill="#FB8E2F"/>
</g>
<g style="mix-blend-mode:multiply" opacity="0.4">
<path d="M29.5292 21.8515L30.242 21.4417V19.02L29.5292 18.6079V21.8515Z" fill="#FB8E2F"/>
</g>
<g style="mix-blend-mode:multiply" opacity="0.4">
<path d="M22.1547 26.0912L23.5804 25.2715V19.5356L22.1547 20.3517V26.0912Z" fill="#FB8E2F"/>
</g>
<g style="mix-blend-mode:multiply" opacity="0.4">
<path d="M22.0673 30.9808L21.7669 26.3137L16.6715 23.488" stroke="#FB8E2F" stroke-width="0.25" stroke-miterlimit="10" stroke-linecap="round"/>
</g>
<g style="mix-blend-mode:multiply" opacity="0.4">
<path d="M21.7456 26.3534C20.6306 25.7085 17.7314 24.105 16.6715 23.4888C17.7424 24.0529 20.6651 25.6784 21.7889 26.2748C21.7979 26.2813 21.8043 26.2908 21.8067 26.3017C21.8092 26.3125 21.8076 26.3239 21.8023 26.3336C21.797 26.3434 21.7883 26.3508 21.7778 26.3546C21.7674 26.3584 21.7559 26.3582 21.7456 26.3541V26.3534Z" fill="#FB8E2F"/>
</g>
<g style="mix-blend-mode:multiply" opacity="0.4">
<path d="M32.3432 20.2334C32.3395 20.2069 21.6714 26.4856 21.8175 26.3108L22.0665 30.9808L21.7169 26.3166V26.2858C21.7368 26.2704 32.3219 20.2503 32.3454 20.2334H32.3432Z" fill="#FB8E2F"/>
</g>
</g>
<path d="M16.6715 23.0474L15.6013 26.6869L22.0673 30.5402L21.7669 25.8731L16.6715 23.0474Z" fill="#FA9B3D"/>
<path d="M27.3764 16.9244L32.3432 19.7927L21.7669 25.8731L16.6715 23.0474L27.3764 16.9244Z" fill="#FFDB59"/>
<path d="M33.6278 23.6893L32.3432 19.7927L21.7668 25.8731L22.0673 30.5402L33.6278 23.6893Z" fill="#FEBD59"/>
<path d="M20.1531 21.056V24.9776L21.0418 25.4705H21.3466V20.3729L20.1531 21.056Z" fill="#FEEC96"/>
<path d="M29.5292 21.4109L30.242 21.001V18.5793L29.5292 18.1672V21.4109Z" fill="#FEEC96"/>
<path d="M22.1547 25.6504L23.5804 24.8307V19.0948L22.1547 19.9109V25.6504Z" fill="#FEEC96"/>
<path d="M22.0673 30.5402L21.7669 25.8731L16.6715 23.0474" stroke="white" stroke-width="0.25" stroke-miterlimit="10" stroke-linecap="round"/>
<path d="M21.7456 25.9127C20.6306 25.2678 17.7314 23.6644 16.6715 23.0481C17.7424 23.6122 20.6651 25.2377 21.7889 25.8341C21.7979 25.8406 21.8043 25.8502 21.8067 25.861C21.8092 25.8718 21.8076 25.8832 21.8023 25.8929C21.797 25.9027 21.7883 25.9102 21.7778 25.9139C21.7674 25.9177 21.7559 25.9175 21.7456 25.9134V25.9127Z" fill="white"/>
<path d="M32.3431 19.7927C32.3394 19.7662 21.6713 26.0449 21.8175 25.8701L22.0665 30.5401L21.7169 25.876V25.8451C21.7367 25.8297 32.3218 19.8096 32.3453 19.7927H32.3431Z" fill="white"/>
<g style="mix-blend-mode:multiply" opacity="0.4">
<g style="mix-blend-mode:multiply" opacity="0.4">
<path d="M13.2053 17.6897L12.1344 21.3292L18.6004 25.1825L18.3007 20.5154L13.2053 17.6897Z" fill="#FB8E2F"/>
</g>
<g style="mix-blend-mode:multiply" opacity="0.4">
<path d="M23.9102 11.566L28.877 14.4351L18.3007 20.5154L13.2053 17.6897L23.9102 11.566Z" fill="#FB8E2F"/>
</g>
<g style="mix-blend-mode:multiply" opacity="0.4">
<path d="M30.1616 18.3317L28.877 14.4351L18.3007 20.5154L18.6003 25.1825L30.1616 18.3317Z" fill="#FB8E2F"/>
</g>
<g style="mix-blend-mode:multiply" opacity="0.4">
<path d="M16.6862 15.6985V19.6201L17.575 20.1129H17.8805V15.0154L16.6862 15.6985Z" fill="#FB8E2F"/>
</g>
<g style="mix-blend-mode:multiply" opacity="0.4">
<path d="M26.063 16.0532L26.7751 15.6433V13.2216L26.063 12.8096V16.0532Z" fill="#FB8E2F"/>
</g>
<g style="mix-blend-mode:multiply" opacity="0.4">
<path d="M18.6885 20.2929L20.1142 19.4731V13.7373L18.6885 14.5534V20.2929Z" fill="#FB8E2F"/>
</g>
<g style="mix-blend-mode:multiply" opacity="0.4">
<path d="M18.6004 25.1825L18.3007 20.5154L13.2053 17.6897" stroke="#FB8E2F" stroke-width="0.25" stroke-miterlimit="10" stroke-linecap="round"/>
</g>
<g style="mix-blend-mode:multiply" opacity="0.4">
<path d="M18.2779 20.555C17.1629 19.9094 14.2638 18.3067 13.2046 17.6904C14.2755 18.2545 17.1974 19.88 18.322 20.4765C18.3314 20.4828 18.3382 20.4925 18.3408 20.5036C18.3435 20.5147 18.3419 20.5264 18.3363 20.5363C18.3308 20.5463 18.3217 20.5538 18.3109 20.5574C18.3001 20.561 18.2883 20.5604 18.2779 20.5558V20.555Z" fill="#FB8E2F"/>
</g>
<g style="mix-blend-mode:multiply" opacity="0.4">
<path d="M28.877 14.435C28.8726 14.4086 18.2045 20.6872 18.3514 20.5124L18.6011 25.1825L18.2515 20.5183V20.4874C18.2713 20.472 28.8572 14.4512 28.8807 14.435H28.877Z" fill="#FB8E2F"/>
</g>
</g>
<path d="M13.2053 17.249L12.1344 20.8886L18.6004 24.7418L18.3007 20.0747L13.2053 17.249Z" fill="#FA9B3D"/>
<path d="M23.9102 11.1254L28.877 13.9944L18.3007 20.0747L13.2053 17.249L23.9102 11.1254Z" fill="#FFDB59"/>
<path d="M30.1616 17.891L28.877 13.9944L18.3007 20.0747L18.6003 24.7418L30.1616 17.891Z" fill="#FEBD59"/>
<path d="M16.6862 15.2578V19.1794L17.5749 19.6723H17.8805V14.5747L16.6862 15.2578Z" fill="#FEEC96"/>
<path d="M26.063 15.6125L26.7751 15.2027V12.781L26.063 12.3689V15.6125Z" fill="#FEEC96"/>
<path d="M18.6885 19.8522L20.1142 19.0325V13.2966L18.6885 14.1127V19.8522Z" fill="#FEEC96"/>
<path d="M18.6004 24.7418L18.3007 20.0747L13.2053 17.249" stroke="white" stroke-width="0.25" stroke-miterlimit="10" stroke-linecap="round"/>
<path d="M18.2779 20.1144C17.1629 19.4687 14.2638 17.866 13.2046 17.2498C14.2755 17.8139 17.1974 19.4394 18.322 20.0358C18.3314 20.0421 18.3382 20.0518 18.3408 20.0629C18.3435 20.074 18.3419 20.0857 18.3363 20.0957C18.3308 20.1056 18.3217 20.1132 18.3109 20.1168C18.3001 20.1204 18.2883 20.1198 18.2779 20.1151V20.1144Z" fill="white"/>
<path d="M28.877 13.9943C28.8726 13.9679 18.2045 20.2466 18.3514 20.0717L18.6011 24.7418L18.2515 20.0776V20.0468C18.2713 20.0313 28.8572 14.0105 28.8807 13.9943H28.877Z" fill="white"/>
</g>
<defs>
<linearGradient id="paint0_linear_7277_57997" x1="21" y1="0" x2="21" y2="61.4091" gradientUnits="userSpaceOnUse">
<stop stop-color="#08021E"/>
<stop offset="1" stop-color="#1F0777"/>
</linearGradient>
<clipPath id="clip0_7277_57997">
<rect width="42" height="42" fill="white"/>
</clipPath>
</defs>
</svg>

<svg xmlns="http://www.w3.org/2000/svg" width="42" height="42" fill="none"><g clip-path="url(#a)"><mask id="c" width="42" height="42" x="0" y="0" maskUnits="userSpaceOnUse" style="mask-type:alpha"><circle cx="21" cy="21" r="21" fill="url(#b)"/></mask><g mask="url(#c)"><circle cx="21" cy="21" r="21" fill="#34EDB3"/><circle cx="21" cy="21" r="18.2" fill="#fff"/></g><circle cx="21" cy="21" r="16.1" fill="#06061B"/><path fill="#06061B" d="M21 37.1c8.892 0 16.1-7.208 16.1-16.1 0-8.892-7.208-16.1-16.1-16.1-8.892 0-16.1 7.208-16.1 16.1 0 8.892 7.208 16.1 16.1 16.1Z"/><g opacity=".4" style="mix-blend-mode:multiply"><path fill="#FB8E2F" d="m9.406 18.908-1.071 3.64L14.8 26.4l-.3-4.667-5.095-2.826Z" opacity=".4" style="mix-blend-mode:multiply"/><path fill="#FB8E2F" d="m20.11 12.785 4.967 2.869-10.576 6.08-5.095-2.826 10.704-6.123ZM26.361 19.55l-1.284-3.896-10.576 6.08.3 4.667 11.56-6.85Z" opacity=".4" style="mix-blend-mode:multiply"/><path fill="#FB8E2F" d="M12.886 16.917v3.922l.89.493h.305v-5.098l-1.194.683ZM22.263 17.272l.712-.41V14.44l-.712-.411v3.243ZM14.888 21.512l1.426-.82v-5.735l-1.426.815v5.74Z" opacity=".4" style="mix-blend-mode:multiply"/><path stroke="#FB8E2F" stroke-linecap="round" stroke-miterlimit="10" stroke-width=".25" d="m14.8 26.401-.299-4.667-5.095-2.826" opacity=".4" style="mix-blend-mode:multiply"/><path fill="#FB8E2F" d="M14.479 21.774c-1.115-.645-4.014-2.249-5.073-2.865 1.07.564 3.992 2.19 5.116 2.787a.045.045 0 0 1 .018.06.045.045 0 0 1-.061.018Z" opacity=".4" style="mix-blend-mode:multiply"/><path fill="#FB8E2F" d="M25.077 15.654c-.004-.026-10.672 6.253-10.526 6.077l.25 4.67-.35-4.663v-.032c.02-.015 10.605-6.035 10.628-6.052h-.002Z" opacity=".4" style="mix-blend-mode:multiply"/></g><path fill="#FA9B3D" d="m9.406 18.468-1.071 3.64L14.8 25.96l-.3-4.667-5.095-2.825Z"/><path fill="#FFDB59" d="m20.11 12.345 4.967 2.869-10.576 6.08-5.095-2.826 10.704-6.123Z"/><path fill="#FEBD59" d="m26.361 19.11-1.284-3.896-10.576 6.08.3 4.666 11.56-6.85Z"/><path fill="#FEEC96" d="M12.886 16.476v3.922l.89.493h.305v-5.098l-1.194.683ZM22.263 16.831l.712-.41V14l-.712-.412v3.243ZM14.888 21.07l1.426-.819v-5.735l-1.426.815v5.74Z"/><path stroke="#fff" stroke-linecap="round" stroke-miterlimit="10" stroke-width=".25" d="m14.8 25.96-.299-4.667-5.095-2.825"/><path fill="#fff" d="M14.479 21.333c-1.115-.645-4.014-2.248-5.073-2.865 1.07.564 3.992 2.19 5.116 2.787a.045.045 0 0 1-.043.079v-.001Z"/><path fill="#fff" d="M25.077 15.214c-.004-.027-10.672 6.252-10.526 6.076l.25 4.67-.35-4.663v-.032c.02-.015 10.605-6.035 10.628-6.051h-.002Z"/><g opacity=".4" style="mix-blend-mode:multiply"><path fill="#FB8E2F" d="m16.672 23.488-1.07 3.64 6.465 3.853-.3-4.667-5.095-2.826ZM27.376 17.365l4.967 2.868-10.576 6.08-5.095-2.825 10.704-6.123ZM33.628 24.13l-1.285-3.897-10.576 6.08.3 4.668 11.56-6.851Z" opacity=".4" style="mix-blend-mode:multiply"/><path fill="#FB8E2F" d="M20.153 21.497v3.921l.889.493h.305v-5.097l-1.194.683ZM29.53 21.852l.712-.41V19.02l-.713-.412v3.244ZM22.155 26.091l1.425-.82v-5.735l-1.425.816v5.74Z" opacity=".4" style="mix-blend-mode:multiply"/><path stroke="#FB8E2F" stroke-linecap="round" stroke-miterlimit="10" stroke-width=".25" d="m22.067 30.98-.3-4.666-5.095-2.826" opacity=".4" style="mix-blend-mode:multiply"/><path fill="#FB8E2F" d="M21.746 26.353c-1.115-.645-4.015-2.248-5.074-2.864 1.07.564 3.993 2.19 5.117 2.786a.045.045 0 0 1 .013.059.045.045 0 0 1-.056.02Z" opacity=".4" style="mix-blend-mode:multiply"/><path fill="#FB8E2F" d="M32.343 20.233c-.004-.026-10.672 6.253-10.526 6.078l.25 4.67-.35-4.664v-.031c.02-.016 10.605-6.036 10.628-6.053h-.002Z" opacity=".4" style="mix-blend-mode:multiply"/></g><path fill="#FA9B3D" d="m16.672 23.047-1.07 3.64 6.465 3.853-.3-4.667-5.095-2.826Z"/><path fill="#FFDB59" d="m27.376 16.924 4.967 2.869-10.576 6.08-5.095-2.826 10.704-6.123Z"/><path fill="#FEBD59" d="m33.628 23.69-1.285-3.897-10.576 6.08.3 4.667 11.56-6.85Z"/><path fill="#FEEC96" d="M20.153 21.056v3.922l.889.492h.305v-5.097l-1.194.683ZM29.53 21.41l.712-.409v-2.422l-.713-.412v3.244ZM22.155 25.65l1.425-.82v-5.735l-1.425.816v5.74Z"/><path stroke="#fff" stroke-linecap="round" stroke-miterlimit="10" stroke-width=".25" d="m22.067 30.54-.3-4.667-5.095-2.826"/><path fill="#fff" d="M21.746 25.913c-1.115-.645-4.015-2.249-5.074-2.865 1.07.564 3.993 2.19 5.117 2.786a.046.046 0 0 1-.043.08v-.001Z"/><path fill="#fff" d="M32.343 19.793c-.004-.027-10.672 6.252-10.526 6.077l.25 4.67-.35-4.664v-.03c.02-.016 10.605-6.036 10.628-6.053h-.002Z"/><g opacity=".4" style="mix-blend-mode:multiply"><path fill="#FB8E2F" d="m13.205 17.69-1.07 3.64 6.465 3.853-.3-4.668-5.095-2.825Z" opacity=".4" style="mix-blend-mode:multiply"/><path fill="#FB8E2F" d="m23.91 11.566 4.967 2.87-10.576 6.08-5.096-2.826 10.705-6.124Z" opacity=".4" style="mix-blend-mode:multiply"/><path fill="#FB8E2F" d="m30.162 18.332-1.285-3.897-10.576 6.08.3 4.668 11.56-6.851ZM16.686 15.698v3.922l.889.493h.306v-5.098l-1.195.683Z" opacity=".4" style="mix-blend-mode:multiply"/><path fill="#FB8E2F" d="m26.063 16.053.712-.41v-2.421l-.712-.412v3.243ZM18.689 20.293l1.425-.82v-5.736l-1.425.816v5.74Z" opacity=".4" style="mix-blend-mode:multiply"/><path stroke="#FB8E2F" stroke-linecap="round" stroke-miterlimit="10" stroke-width=".25" d="m18.6 25.183-.3-4.668-5.095-2.825" opacity=".4" style="mix-blend-mode:multiply"/><path fill="#FB8E2F" d="M18.278 20.555c-1.115-.646-4.014-2.248-5.073-2.865 1.07.564 3.992 2.19 5.117 2.787a.045.045 0 0 1 .014.06.045.045 0 0 1-.058.019v-.001Z" opacity=".4" style="mix-blend-mode:multiply"/><path fill="#FB8E2F" d="M28.877 14.435c-.004-.026-10.672 6.252-10.526 6.077l.25 4.67-.35-4.664v-.03c.02-.016 10.606-6.037 10.63-6.053h-.004Z" opacity=".4" style="mix-blend-mode:multiply"/></g><path fill="#FA9B3D" d="m13.205 17.249-1.07 3.64 6.465 3.853-.3-4.667-5.095-2.826Z"/><path fill="#FFDB59" d="m23.91 11.125 4.967 2.87-10.576 6.08-5.096-2.826 10.705-6.124Z"/><path fill="#FEBD59" d="m30.162 17.891-1.285-3.897-10.576 6.08.3 4.668 11.56-6.851Z"/><path fill="#FEEC96" d="M16.686 15.258v3.921l.889.493h.306v-5.097l-1.195.683ZM26.063 15.613l.712-.41V12.78l-.712-.412v3.244ZM18.689 19.852l1.425-.82v-5.735l-1.425.816v5.74Z"/><path stroke="#fff" stroke-linecap="round" stroke-miterlimit="10" stroke-width=".25" d="m18.6 24.742-.3-4.667-5.095-2.826"/><path fill="#fff" d="M18.278 20.114c-1.115-.645-4.014-2.248-5.073-2.864 1.07.564 3.992 2.19 5.117 2.786a.045.045 0 0 1 .014.06.046.046 0 0 1-.058.02v-.002Z"/><path fill="#fff" d="M28.877 13.994c-.004-.026-10.672 6.253-10.526 6.078l.25 4.67-.35-4.664v-.031c.02-.016 10.606-6.037 10.63-6.053h-.004Z"/></g><defs><linearGradient id="b" x1="21" x2="21" y1="0" y2="61.409" gradientUnits="userSpaceOnUse"><stop stop-color="#08021E"/><stop offset="1" stop-color="#1F0777"/></linearGradient><clipPath id="a"><path fill="#fff" d="M0 0h42v42H0z"/></clipPath></defs></svg>
